build/images/header/left-vector-md.svg

<svg width="506" height="72" viewBox="0 0 506 72" fill="none" xmlns="http://www.w3.org/2000/svg">
<path d="M504.722 54.455L482.713 35.4292H261.617L239.607 54.1091" stroke="white"/>
<ellipse cx="235.605" cy="57.2256" rx="4.50188" ry="4.5" stroke="white"/>
<circle cx="73.0293" cy="2.83691" r="2" fill="white"/>
<path d="M20.7247 71.319V71.819H20.5209L20.3751 71.6765L20.7247 71.319ZM1.14862 54.2612L0.829407 54.646L0.65097 54.498L0.648651 54.2662L1.14862 54.2612ZM1.14862 2.99902L0.648712 2.9897L0.657867 2.49902H1.14862V2.99902ZM250.608 71.319L250.935 71.6973L250.794 71.819H250.608V71.319ZM275.618 49.6988L275.291 49.3205L275.432 49.1988H275.618V49.6988ZM102.542 71.819H20.7247V70.819H102.542V71.819ZM20.3751 71.6765C17.6272 68.9894 12.7459 64.7356 8.54062 61.1448C6.44025 59.3514 4.51227 57.7266 3.10934 56.55C2.4079 55.9618 1.83777 55.4857 1.44308 55.1567C1.24573 54.9922 1.09225 54.8645 0.988129 54.7779C0.936066 54.7346 0.896362 54.7016 0.869659 54.6795C0.856323 54.6684 0.846252 54.66 0.839508 54.6544C0.836121 54.6516 0.833588 54.6495 0.831909 54.6481C0.831055 54.6474 0.830444 54.6469 0.830017 54.6466C0.829803 54.6464 0.829651 54.6463 0.829559 54.6462C0.829437 54.6461 0.829407 54.646 1.14862 54.2612C1.46783 53.8764 1.4679 53.8764 1.46802 53.8765C1.46811 53.8766 1.46829 53.8767 1.46851 53.8769C1.46893 53.8773 1.4696 53.8778 1.47046 53.8785C1.47217 53.88 1.47473 53.8821 1.47815 53.8849C1.48495 53.8906 1.49512 53.899 1.50854 53.9102C1.53537 53.9324 1.57523 53.9655 1.62744 54.009C1.73187 54.0958 1.88568 54.2238 2.08337 54.3885C2.47873 54.7181 3.04962 55.1949 3.75189 55.7838C5.15643 56.9617 7.08676 58.5885 9.18997 60.3844C13.3918 63.9722 18.2985 68.2472 21.0743 70.9615L20.3751 71.6765ZM1.14862 54.2612C0.648651 54.2662 0.648651 54.2661 0.648651 54.2658C0.648651 54.2656 0.648621 54.2652 0.648621 54.2647C0.648621 54.2637 0.64859 54.2622 0.64859 54.2601C0.648529 54.2561 0.648499 54.25 0.648407 54.242C0.648254 54.2259 0.64801 54.2018 0.647705 54.17C0.647064 54.1064 0.646149 54.0118 0.644958 53.8876C0.642609 53.6391 0.63916 53.2725 0.634918 52.7995C0.626404 51.8535 0.614624 50.4821 0.601562 48.7804C0.575409 45.3769 0.544006 40.6519 0.523102 35.3656C0.481232 24.7944 0.481201 11.9738 0.648712 2.9897L1.64853 3.00834C1.48126 11.9801 1.48123 24.7907 1.52307 35.3616C1.54401 40.6464 1.57538 45.3701 1.60153 48.7727C1.61459 50.474 1.62637 51.8449 1.63486 52.7905C1.63913 53.2633 1.64255 53.6298 1.64493 53.878C1.64612 54.0021 1.64703 54.0967 1.64764 54.1602C1.64795 54.192 1.64819 54.216 1.64835 54.232C1.64844 54.2401 1.6485 54.2461 1.64853 54.2501C1.64856 54.2522 1.64856 54.2537 1.64859 54.2547C1.64859 54.2552 1.64859 54.2556 1.64859 54.2558C1.64859 54.2561 1.64859 54.2562 1.14862 54.2612ZM1.14862 2.49902H73.0298V3.49902H1.14862V2.49902ZM102.542 70.819H250.608V71.819H102.542V70.819ZM250.281 70.9408L275.291 49.3205L275.945 50.077L250.935 71.6973L250.281 70.9408ZM275.618 49.1988H361.158V50.1988H275.618V49.1988Z" fill="white"/>
<path d="M13.3328 70.5082L14.3488 71.3864H13.0059H2.00127H1.50127V70.8864V61.3735V60.2804L2.32826 60.9953L13.3328 70.5082Z" fill="white" stroke="white"/>
<path d="M355.156 54.4554C355.596 52.8065 357.357 49.8892 362.199 49.8892" stroke="white" stroke-width="0.88"/>
<path d="M355.156 44.9426C355.596 46.5915 357.357 49.5088 362.199 49.5088" stroke="white" stroke-width="0.88"/>
</svg>

<svg width="506" height="72" fill="none" xmlns="http://www.w3.org/2000/svg"><path d="M504.722 54.455l-22.009-19.026H261.617l-22.01 18.68" stroke="#fff"/><ellipse cx="235.605" cy="57.226" rx="4.502" ry="4.5" stroke="#fff"/><circle cx="73.029" cy="2.837" r="2" fill="#fff"/><path d="M20.725 71.319v.5h-.204l-.146-.142.35-.358zM1.149 54.261l-.32.385-.178-.148-.002-.232.5-.005zM1.149 3l-.5-.01.009-.49h.49V3zm249.459 68.32l.327.378-.141.122h-.186v-.5zm25.01-21.62l-.327-.378.141-.122h.186v.5zM102.542 71.82H20.725v-1h81.817v1zm-82.167-.142c-2.748-2.688-7.63-6.941-11.834-10.532A817.397 817.397 0 00.87 54.679a2.558 2.558 0 01-.04-.033 90.638 90.638 0 01.638-.77l.002.003a.343.343 0 00.008.006l.03.025.12.099a544.484 544.484 0 012.124 1.775 814.779 814.779 0 015.438 4.6c4.202 3.588 9.109 7.863 11.884 10.578l-.699.715zM1.15 54.26l-.5.005v-.024l-.001-.072a656.043 656.043 0 01-.013-1.37 3648.233 3648.233 0 01-.112-17.434C.481 24.794.481 11.974.65 2.99l1 .018c-.168 8.972-.168 21.783-.126 32.354a3655.097 3655.097 0 00.122 18.516l.003.282v.095l-.5.006zm0-51.762h71.88v1H1.15v-1zm101.393 68.32h148.066v1H102.542v-1zm147.739.122l25.01-21.62.654.756-25.01 21.62-.654-.756zm25.337-21.742h85.54v1h-85.54v-1z" fill="#fff"/><path d="M13.333 70.508l1.016.878H1.5V60.28l.827.715 11.005 9.513z" fill="#fff" stroke="#fff"/><path d="M355.156 54.455c.44-1.648 2.201-4.566 7.043-4.566m-7.043-4.946c.44 1.649 2.201 4.566 7.043 4.566" stroke="#fff" stroke-width=".88"/></svg>
